src/pos-icons/file-find.svg

<svg height="24" viewBox="0 0 24 24" width="24" xmlns="http://www.w3.org/2000/svg"><path d="m9 13a3 3 0 0 0 3 3 3 3 0 0 0 3-3 3 3 0 0 0 -3-3 3 3 0 0 0 -3 3m11 6.59v-11.59l-6-6h-8a2 2 0 0 0 -2 2v16a2 2 0 0 0 2 2h12c.45 0 .85-.15 1.19-.4l-4.43-4.43c-.8.52-1.76.83-2.76.83a5 5 0 0 1 -5-5 5 5 0 0 1 5-5 5 5 0 0 1 5 5c0 1-.31 1.96-.83 2.75z"/></svg>

<?xml version="1.0" encoding="UTF-8"?><!DOCTYPE svg PUBLIC "-//W3C//DTD SVG 1.1//EN" "http://www.w3.org/Graphics/SVG/1.1/DTD/svg11.dtd"><svg xmlns="http://www.w3.org/2000/svg" xmlns:xlink="http://www.w3.org/1999/xlink" version="1.1" id="mdi-file-find" width="24" height="24" viewBox="0 0 24 24"><path d="M9,13A3,3 0 0,0 12,16A3,3 0 0,0 15,13A3,3 0 0,0 12,10A3,3 0 0,0 9,13M20,19.59V8L14,2H6A2,2 0 0,0 4,4V20A2,2 0 0,0 6,22H18C18.45,22 18.85,21.85 19.19,21.6L14.76,17.17C13.96,17.69 13,18 12,18A5,5 0 0,1 7,13A5,5 0 0,1 12,8A5,5 0 0,1 17,13C17,14 16.69,14.96 16.17,15.75L20,19.59Z" /></svg>
